!!!!SEGMENT: Jan3001-Deh_quante_dolcamor.krn
!!!id: Jan3001
!!!AGN: Madrigal
!!!voices: 4
!!!COM: Maistre Jan
!!!OTL: Deh, quant'è dolc'amor
**kern	**kern	**kern	**kern
*part4	*part3	*part2	*part1
*staff4	*staff3	*staff2	*staff1
*I"Bassus	*I"Tenor	*I"Altus	*I"Superius
*I'B	*I'T	*I'A	*I'S
*clefF4	*clefGv2	*clefGv2	*clefG2
*k[b-]	*k[b-]	*k[b-]	*k[b-]
*F:	*F:	*F:	*F:
*M2/1	*M2/1	*M2/1	*M2/1
*met(C)	*met(C)	*met(C)	*met(C)
0D	0f	0d	0a
=1	=1	=1	=1
2G	2g	2d	2b-y
2F	2a	2d	2a
2G	2b-y	2d	2g
2G	2b-y	2d	2g
=2	=2	=2	=2
2D	2a	2d	2f
2D	2f	2d	2a
2G	2g	2d	2b-y
2F	[2a	[2f	2cc
=3	=3	=3	=3
1B-y	4a]	2f]	1dd
.	8gL	.	.
.	8fJ	.	.
.	2g	4e	.
.	.	4d	.
1A	1a	1e	1cc
=4	=4	=4	=4
1F	2r	1f	2r
.	2a	.	2cc
2G	2g	2d	2b-y
2D	2f	2d	2a
=5	=5	=5	=5
2G	2d	2B-y	2g
2G	2e	2B-y	2b-y
2F	2f	2c	2a
2C	2e	2c	2g
=6	=6	=6	=6
2D	2d	2A	2f
2D	2.d	2F	2a
1E	.	1G	1g
.	8c#iL	.	.
.	8BnXiJ	.	.
.	2c#i	.	.
=7	=7	=7	=7
1D	1d	1A	1f
1D	2r	2r	2r
.	2d	2A	2a
=8	=8	=8	=8
2BB-y	2d	2B-y	2g
2BB-y	2d	2B-y	2f
2C	2c	2G	2e
2C	2e	2c	2g
=9	=9	=9	=9
2D	2d	2A	2.f
2D	2.f	2A	.
.	.	.	4e
2D	.	2A	2d
.	4e	.	.
2D	[2d	2A	2f
=10	=10	=10	=10
1AA	2d]	1A	1e
.	2c	.	.
1D	2.f	1A	4d
.	.	.	4e
.	.	.	4f
.	4e	.	4g
=11	=11	=11	=11
2r	4d	1f	2a
.	4c	.	.
2BB-y	2d	.	2b-y
2C	2.c	2e	2a
2C	.	2e	[2g
.	4B-y	.	.
=12	=12	=12	=12
1D	4A	1d	4g]
.	4G	.	4f#i
.	2A	.	4f#i
.	.	.	8eL
.	.	.	8f#iJ
[1G	[1G	[1d	[1g
=13	=13	=13	=13
0G_	0G_	0d_	0g_
=14	=14	=14	=14
1G]	1G]	1d]	1g]
1D	1f	1a	1dd
=15	=15	=15	=15
2A	2e	2a	2cc
2B-y	2d	2f	2dd
2G	2g	2b-y	2dd
2A	2e	4a	2cc
.	.	4g	.
=16	=16	=16	=16
1D	1d	4f	4dd
.	.	4e	4cc
.	.	4d	4b-y
.	.	4c	4a
1G	2r	2d	2b-y
.	2b-y	2d	2g
=17	=17	=17	=17
2F	2a	2f	2a
2G	1g	2d	2b-y
1A	.	1c	1cc
.	2f#i	.	.
=18	=18	=18	=18
1G	1g	1d	1b-y
2r	2r	2r	2r
2G	2g	2B-y	2dd
=19	=19	=19	=19
1C	1g	1c	1ee
2G	2g	2B-y	2dd
2G	2g	2d	2b-y
=20	=20	=20	=20
1C	1g	1e-i	1cc
1G	2.g	2d	2.b-y
.	.	2B-y	.
.	4f	.	4a
=21	=21	=21	=21
1r	2e	2c	2g
.	2d	2d	2f
2r	4c	2A	1e
.	2d	.	.
2A	.	2A	.
.	4c#i	.	.
=22	=22	=22	=22
2.B-y	1d	2.d	1d
4A	.	4c	.
2G	2r	2B-y	2r
2F	2d	2A	2a
=23	=23	=23	=23
2G	2.d	2G	2.b-y
2G	.	2G	.
.	4c	.	4a
2r	2B-y	1r	2g
2D	2A	.	2f
=24	=24	=24	=24
0G	2G	2r	2g
.	1B-y	2G	2g
.	.	1d	2r
.	2G	.	2g
=25	=25	=25	=25
1G	2d	2r	2b-y
.	2B-y	2d	2g
2F	2c	2f	2a
2D	2d	2f	2b-y
=26	=26	=26	=26
1C	1e-i	1g	1cc
1G	2d	1g	1b-y
.	2B-y	.	.
=27	=27	=27	=27
2F	1c	2r	2a
2E	.	2G	1g
1D	1d	2B-y	.
.	.	2A	2f#i
=28	=28	=28	=28
2C	2e-i	2c	[0g
2C	2e-i	2c	.
2BB-y	2d	2d	.
2C	[2c	2e	.
=29	=29	=29	=29
1G	2c]	1d	0g]
.	2BnXi	.	.
1C	1c	1e	.
=30	=30	=30	=30
0BB-y	0d	0f	0b-y
=31	=31	=31	=31
1F	1c	1f	1a
1G	1B-y	1d	1g
=32	=32	=32	=32
1C	1G	1e	2.cc
.	.	.	4b-y
1C	1c	1e	2a
.	.	.	2g
=33	=33	=33	=33
2D	2A	2d	2f#X
2D	2A	2d	2f#i
2r	2r	2r	2r
2G	2B-y	2d	2g
=34	=34	=34	=34
2D	2A	2d	2f
2G	2B-y	2d	2g
2F	2c	2f	2a
2F	2c	2f	2a
=35	=35	=35	=35
2.B-y	2.d	2f	2b-y
.	.	2f	2f
4A	4c	.	.
2G	2B-y	2e	2g
2F	2A	[2d	2a
=36	=36	=36	=36
1E-X	1G	2d]	2b-y
.	.	2c	4a
.	.	.	4g
1D	1A	1d	1f
=37	=37	=37	=37
2r	2r	2r	2r
2BB-y	2B-y	2d	2f
2BB-y	2B-y	2d	2f
2BB-y	2B-y	2d	2f
=38	=38	=38	=38
1E-i	1B-y	1e-X	1g
1BB-y	1B-y	1d	2f
.	.	.	[2g
=39	=39	=39	=39
2C	2G	2e	4g]
.	.	.	4a
2BB-y	2d	2f	2b-y
2C	2c	2e	2a
2D	4B-y	[2d	[2b-y
.	4A	.	.
=40	=40	=40	=40
1E-i	1G	4d]	4b-]
.	.	4B-y	4a
.	.	2c	2.g
1D	1A	1d	.
.	.	.	8f#iL
.	.	.	8eJ
.	.	.	2f#i
=41	=41	=41	=41
1r	1G	1r	1g
1BB-y	2r	1d	2r
.	2B-y	.	2f
=42	=42	=42	=42
2BB-y	2B-y	2d	2f
2BB-y	2B-y	2d	2f
1E-X	1B-y	1e-i	1g
=43	=43	=43	=43
1BB-y	1B-y	1d	2f
.	.	.	2.g
2C	2G	2e	.
.	.	.	4a
2BB-y	2d	2f	2b-y
=44	=44	=44	=44
2C	2c	2e	2a
2D	4B-y	2.d	2.b-y
.	4A	.	.
1E-X	1G	.	.
.	.	4B-y	4a
.	.	2c	[2g
=45	=45	=45	=45
1D	1A	1d	4g]
.	.	.	8f#iL
.	.	.	8eJ
.	.	.	2f#i
1r	1G	1r	[1gl
=46	=46	=46	=46
1G	2r	1d	0g_
.	2B-y	.	.
2C	2c	2e-X	.
2G	2B-y	2d	.
=47	=47	=47	=47
2C	2c	2e-i	0g_
2BB-y	2d	2d	.
[1C	[1e-i	[1c	.
=48	=48	=48	=48
1C]	1e-]	1c]	0g_
[1Gl	[1dl	[1B-yl	.
=49	=49	=49	=49
00G]	00d]	00B-]	00g]
==	==	==	==
*-	*-	*-	*-
!!!system-decoration: [*]
!!!RDF**kern: i = editorial accidental
!!!RDF**kern: l = terminal long
!!!ENC: Benjamin Ory
!!!END: 2024/4/28
!!!EED: Benjamin Ory
!!!EEV: 2024/04/28
!!!YEC: Copyright 2024 Benjamin Ory, All Rights Reserved
!!!ONB: Translated from MusicXML on 2024/04/28